assets/delete-icon.svg

<?xml version="1.0"?><svg xmlns="http://www.w3.org/2000/svg"  viewBox="0 0 30 30" width="30px" height="30px">    <path d="M 14.984375 2.4863281 A 1.0001 1.0001 0 0 0 14 3.5 L 14 4 L 8.5 4 A 1.0001 1.0001 0 0 0 7.4863281 5 L 6 5 A 1.0001 1.0001 0 1 0 6 7 L 24 7 A 1.0001 1.0001 0 1 0 24 5 L 22.513672 5 A 1.0001 1.0001 0 0 0 21.5 4 L 16 4 L 16 3.5 A 1.0001 1.0001 0 0 0 14.984375 2.4863281 z M 6 9 L 7.7929688 24.234375 C 7.9109687 25.241375 8.7633438 26 9.7773438 26 L 20.222656 26 C 21.236656 26 22.088031 25.241375 22.207031 24.234375 L 24 9 L 6 9 z"/></svg>

<?xml version="1.0"?>
<svg width="30" height="30" xmlns="http://www.w3.org/2000/svg" xmlns:svg="http://www.w3.org/2000/svg">
 <g class="layer">
  <title>Layer 1</title>
  <path d="m14.98,2.49a1,1 0 0 0 -0.98,1.01l0,0.5l-5.5,0a1,1 0 0 0 -1.01,1l-1.49,0a1,1 0 1 0 0,2l18,0a1,1 0 1 0 0,-2l-1.49,0a1,1 0 0 0 -1.01,-1l-5.5,0l0,-0.5a1,1 0 0 0 -1.02,-1.01zm-8.98,6.51l1.79,15.23c0.12,1.01 0.97,1.77 1.99,1.77l10.44,0c1.02,0 1.87,-0.76 1.99,-1.77l1.79,-15.23l-18,0z" fill="#ffffff" id="svg_1"/>
 </g>
</svg>
